X: 130556
T: McKenna's
S: "Treoir"
Z: B.Black
M: 4/4
L: 1/8
R: reel
K: G
(3DEF | GBdB cAFA | GABc dBcA | GBdB cAFA |\
GB (3AGF GDB,D |
GBdB cAFA | GABc defg | afge fdcA |1 GBAF G2 :|2\
GBAF G4 ||
fd (3d^cd ed=cA | dggf gbag | fdge fdcA |\
GB (3AGF G2 eg |
fdge fdcA | dg (3gfg gbag | fd (3d^cd ed=cA |\
GBAF G4 :|
